X:1
T:Andrew and his Cutty Gun [2]
M:2/4
L:1/8
R:Air
S:John Rook music manuscript collection (1840, p. 23)
N:Rook was a multi-instrumentalist from Waverton, near Wigton, Cumbria
Z:AK/Fiddler’s Companion
K:Emin
d2 EF/G/|A/G/F/E/ FD|B>A F>d|A>F E2:|Ddde|
d>Bd>B|Beef|g/f/e/d/ B2|ABde|dBAd|BAFd|A<F E2||

